public/assets/images/icons/phone.svg

<svg width="24" height="24" viewBox="0 0 24 24" fill="none" xmlns="http://www.w3.org/2000/svg">
    <path d="M3.83199 5.82006L6.13872 3.5155C6.30144 3.35206 6.49485 3.22239 6.70783 3.13392C6.92082 3.04546 7.14918 2.99994 7.37981 3C7.84982 3 8.29167 3.18411 8.62306 3.5155L11.1052 5.99767C11.2687 6.16039 11.3983 6.35379 11.4868 6.56678C11.5753 6.77976 11.6208 7.00813 11.6207 7.23875C11.6207 7.70877 11.4366 8.15062 11.1052 8.48201L9.29017 10.2971C9.71504 11.2335 10.3057 12.0855 11.0338 12.8117C11.76 13.5415 12.6118 14.1344 13.5484 14.5618L15.3635 12.7468C15.5262 12.5833 15.7196 12.4536 15.9326 12.3652C16.1456 12.2767 16.3739 12.2312 16.6046 12.2313C17.0746 12.2313 17.5164 12.4154 17.8478 12.7468L20.3322 15.2268C20.4958 15.3898 20.6256 15.5835 20.714 15.7969C20.8025 16.0103 20.8479 16.239 20.8477 16.47C20.8477 16.94 20.6635 17.3819 20.3322 17.7133L18.0298 20.0157C17.5013 20.5463 16.7713 20.8474 16.0219 20.8474C15.8638 20.8474 15.7122 20.8344 15.5627 20.8084C12.6431 20.3276 9.74719 18.7746 7.41013 16.4397C5.07524 14.107 3.52443 11.2133 3.03709 8.28491C2.8898 7.39037 3.18654 6.46984 3.83199 5.82006Z" fill="white"/>
</svg>

<svg width="24" height="24" fill="none" xmlns="http://www.w3.org/2000/svg"><path d="M3.832 5.82l2.307-2.305a1.75 1.75 0 012.484 0l2.482 2.483a1.75 1.75 0 010 2.484L9.29 10.297a8.528 8.528 0 001.744 2.515 8.562 8.562 0 002.514 1.75l1.816-1.815a1.748 1.748 0 011.24-.516c.47 0 .912.184 1.244.516l2.484 2.48a1.75 1.75 0 01.516 1.243c0 .47-.184.912-.516 1.243l-2.302 2.303a2.847 2.847 0 01-2.467.792c-2.92-.48-5.816-2.033-8.153-4.368-2.335-2.333-3.886-5.227-4.373-8.155a2.85 2.85 0 01.795-2.465z" fill="#fff"/></svg>
